svgs/regular/bags-shopping.svg

<svg xmlns="http://www.w3.org/2000/svg" viewBox="0 0 576 512"><!--! Font Awesome Pro 6.0.0-alpha3 by @fontawesome - https://fontawesome.com License - https://fontawesome.com/license (Commercial License) --><path d="M512 256H256c-35.35 0-64 28.65-64 64v128c0 35.35 28.65 64 64 64h256c35.35 0 64-28.65 64-64v-128C576 284.7 547.3 256 512 256zM480 351.1c0 52.94-43.06 96-96 96S288 404.9 288 352v-8c0-13.25 10.75-23.1 24-23.1S336 330.8 336 344V352c0 26.47 21.53 48 48 48s48-21.53 48-48v-8c0-13.25 10.75-23.1 24-23.1S480 330.8 480 344V351.1zM48 416V224c0-8.822 7.178-16 16-16h320c8.822 0 16 7.178 16 16H448c0-35.35-28.65-64-64-64l-64 0V96c0-52.94-43.06-96-96-96S128 43.06 128 96v64L64 160C28.65 160 0 188.7 0 224v192c0 35.35 28.65 64 64 64h96v-48H64C55.18 432 48 424.8 48 416zM176 96c0-26.47 21.53-48 48-48S272 69.53 272 96v64h-96V96z"/></svg>

<svg xmlns="http://www.w3.org/2000/svg" viewBox="0 0 576 512"><!--! Font Awesome Pro 6.4.2 by @fontawesome - https://fontawesome.com License - https://fontawesome.com/license (Commercial License) Copyright 2023 Fonticons, Inc. --><path d="M176 96c0-26.5 21.5-48 48-48s48 21.5 48 48v64H176V96zm-48 64H64c-35.3 0-64 28.7-64 64V416c0 35.3 28.7 64 64 64h96V432H64c-8.8 0-16-7.2-16-16V224c0-8.8 7.2-16 16-16H384c8.8 0 16 7.2 16 16h48c0-35.3-28.7-64-64-64H320V96c0-53-43-96-96-96s-96 43-96 96v64zm128 96c-35.3 0-64 28.7-64 64V448c0 35.3 28.7 64 64 64H512c35.3 0 64-28.7 64-64V320c0-35.3-28.7-64-64-64H256zm64 80v16c0 35.3 28.7 64 64 64s64-28.7 64-64V336c0-8.8 7.2-16 16-16s16 7.2 16 16v16c0 53-43 96-96 96s-96-43-96-96V336c0-8.8 7.2-16 16-16s16 7.2 16 16z"/></svg>
